teeny/solid/linkedin.svg

<svg width="15" height="15" viewBox="0 0 15 15" fill="none" xmlns="http://www.w3.org/2000/svg">
<path fill-rule="evenodd" clip-rule="evenodd" d="M0 1.5C0 0.671573 0.671573 0 1.5 0H13.5C14.3284 0 15 0.671573 15 1.5V13.5C15 14.3284 14.3284 15 13.5 15H1.5C0.671573 15 0 14.3284 0 13.5V1.5ZM5 5H4V4H5V5ZM4 11V6H5V11H4ZM8.5 7C7.67157 7 7 7.67157 7 8.5V11H6V6H7V6.49982C7.41783 6.18597 7.9372 6 8.5 6C9.88071 6 11 7.11929 11 8.5V11H10V8.5C10 7.67157 9.32843 7 8.5 7Z" fill="black"/>
</svg>

<svg viewBox="0 0 15 15" xmlns="http://www.w3.org/2000/svg"><path fill-rule="evenodd" d="M0 1.5C0 .67.67 0 1.5 0h12c.82 0 1.5.67 1.5 1.5v12c0 .82-.68 1.5-1.5 1.5h-12C.67 15 0 14.32 0 13.5v-12ZM5 5H4V4h1v1Zm-1 6V6h1v5H4Zm4.5-4C7.67 7 7 7.67 7 8.5V11H6V6h1v.49c.41-.32.93-.5 1.5-.5 1.38 0 2.5 1.11 2.5 2.5v2.5h-1v-2.5c0-.83-.68-1.5-1.5-1.5Z"/></svg>
